src/assets/icons/badge.svg

<svg width="48" height="64" viewBox="0 0 48 64" fill="none" xmlns="http://www.w3.org/2000/svg">
<path d="M0 0H48V40C48 53.2548 37.2548 64 24 64C10.7452 64 0 53.2548 0 40V0Z" fill="#00C88C"/>
<path fill-rule="evenodd" clip-rule="evenodd" d="M33.5394 31.8661C34.3271 31.8661 34.9657 31.2245 34.9657 30.433C34.9657 29.6416 34.3271 29 33.5394 29C32.7516 29 32.113 29.6416 32.113 30.433C32.113 31.2245 32.7516 31.8661 33.5394 31.8661Z" fill="white"/>
<path fill-rule="evenodd" clip-rule="evenodd" d="M13 35.8671C13 35.4697 13.1369 35.1334 13.4108 34.8583C13.6846 34.5831 14.0194 34.4456 14.4149 34.4456C14.8105 34.4456 15.1452 34.5831 15.4191 34.8583C15.6929 35.1334 15.8299 35.4697 15.8299 35.8671V39.9484C15.8299 41.0796 16.0429 42.1419 16.4689 43.1355C16.8949 44.1291 17.4806 45.0004 18.2261 45.7494C18.9716 46.4984 19.8389 47.0869 20.8278 47.5149C21.8167 47.9429 22.8741 48.1569 24 48.1569C25.1259 48.1569 26.1833 47.9429 27.1722 47.5149C28.1611 47.0869 29.0284 46.4984 29.7739 45.7494C30.5194 45.0004 31.1051 44.1291 31.5311 43.1355C31.9571 42.1419 32.1701 41.0796 32.1701 39.9484V35.8671C32.1701 35.4697 32.3071 35.1334 32.5809 34.8583C32.8548 34.5831 33.1895 34.4456 33.5851 34.4456C33.9806 34.4456 34.3154 34.5831 34.5892 34.8583C34.8631 35.1334 35 35.4697 35 35.8671V39.9484C35 41.477 34.7109 42.9138 34.1328 44.259C33.5546 45.6042 32.7711 46.7735 31.7822 47.7671C30.7932 48.7607 29.6293 49.5479 28.2905 50.1287C26.9516 50.7096 25.5214 51 24 51C22.4786 51 21.0484 50.7096 19.7095 50.1287C18.3707 49.5479 17.2068 48.7607 16.2178 47.7671C15.2289 46.7735 14.4454 45.6042 13.8672 44.259C13.2891 42.9138 13 41.477 13 39.9484V35.8671Z" fill="white"/>
<path fill-rule="evenodd" clip-rule="evenodd" d="M14.4263 31.8661C15.2141 31.8661 15.8527 31.2245 15.8527 30.433C15.8527 29.6416 15.2141 29 14.4263 29C13.6386 29 13 29.6416 13 30.433C13 31.2245 13.6386 31.8661 14.4263 31.8661Z" fill="white"/>
</svg>

<svg width="48" height="64" fill="none" xmlns="http://www.w3.org/2000/svg"><path d="M0 0h48v40c0 13.255-10.745 24-24 24S0 53.255 0 40V0z" fill="#00C88C"/><path fill-rule="evenodd" clip-rule="evenodd" d="M33.54 31.866a1.43 1.43 0 0 0 1.426-1.433A1.43 1.43 0 0 0 33.539 29a1.43 1.43 0 0 0-1.426 1.433 1.43 1.43 0 0 0 1.426 1.433zM13 35.867c0-.397.137-.734.41-1.009a1.362 1.362 0 0 1 1.005-.412c.396 0 .73.137 1.004.412.274.275.41.612.41 1.01v4.08c0 1.132.214 2.194.64 3.188a8.267 8.267 0 0 0 4.359 4.38 7.9 7.9 0 0 0 3.172.64 7.9 7.9 0 0 0 3.172-.641 8.267 8.267 0 0 0 4.36-4.38 8.002 8.002 0 0 0 .638-3.187v-4.08c0-.398.137-.735.41-1.01a1.363 1.363 0 0 1 1.005-.412c.396 0 .73.137 1.004.412.274.275.411.612.411 1.01v4.08a10.8 10.8 0 0 1-.867 4.311 11.17 11.17 0 0 1-2.35 3.508 11.111 11.111 0 0 1-3.492 2.362c-1.34.58-2.77.871-4.291.871-1.521 0-2.952-.29-4.29-.871a11.111 11.111 0 0 1-3.492-2.362 11.17 11.17 0 0 1-2.35-3.508 10.8 10.8 0 0 1-.868-4.31v-4.082zM14.426 31.866a1.43 1.43 0 0 0 1.427-1.433A1.43 1.43 0 0 0 14.426 29 1.43 1.43 0 0 0 13 30.433a1.43 1.43 0 0 0 1.426 1.433z" fill="#fff"/></svg>
